icons/core/file-export.svg

<svg width="32" height="32" viewBox="0 0 32 32" xmlns="http://www.w3.org/2000/svg"><path fill-rule="evenodd" clip-rule="evenodd" d="M2 4C2 2.89543 2.89543 2 4 2H13.5858C14.1162 2 14.6249 2.21071 15 2.58579L21.4142 9C21.7893 9.37507 22 9.88378 22 10.4142V14H20V12H14C12.8954 12 12 11.1046 12 10V4H4V28H20V26H22V28C22 29.1046 21.1046 30 20 30H4C2.89543 30 2 29.1046 2 28V4ZM14 4.41421L19.5858 10H14V4.41421ZM26.5858 18.9998L23.2926 15.7066L24.7069 14.2924L29.7071 19.2926L30.4142 19.9997L29.7071 20.7069L24.7069 25.7071L23.2926 24.2929L26.5858 20.9998H9.99975V18.9998H26.5858Z"/></svg>

<svg viewBox="0 0 32 32" xmlns="http://www.w3.org/2000/svg"><path fill-rule="evenodd" d="M2 4a2 2 0 012-2h9.586A2 2 0 0115 2.586L21.414 9A2 2 0 0122 10.414V14h-2v-2h-6a2 2 0 01-2-2V4H4v24h16v-2h2v2a2 2 0 01-2 2H4a2 2 0 01-2-2V4zm12 .414L19.586 10H14V4.414zM26.586 19l-3.293-3.293 1.414-1.415 5 5 .707.708-.707.707-5 5-1.414-1.414L26.586 21H10v-2h16.586z"/></svg>
